X:1
T: Karen's Tuba
N:
C:Colin Hume
S:
A:
O:
R:
M:4/4
K:C
I:speed 200
%W: A1
% voice 1 (1 lines, 30 notes)
K:C
M:4/4
L:1/16
G4 E2 F2 G4 c4 |A4 F4 G8 |c4 d2 e2 f4 e4 |d16 |e4 d2 e2 c4 B4 |A4 d2 c2 B4 G4 |c4 c2 d2 e4 d4 |c16 |
%W: A2
% voice 1 (1 lines, 30 notes)
G4 E2 F2 G4 c4 |A4 F4 G8 |c4 d2 e2 f4 e4 |d16 |e4 d2 e2 c4 B4 |A4 d2 c2 B4 G4 |c4 c2 d2 e4 d4 |c16 |
%W: B1
% voice 1 (1 lines, 28 notes)
d4 d2 e2 f4 d4 |g16 |A4 A2 B2 c4 A4 |d16 |e4 e2 f2 g4 e4 |c4 c2 d2 e4 c4 |A4 f2 e2 d6 c2 |c16 |
%W: B2
% voice 1 (1 lines, 30 notes)
G4 E2 F2 G4 c4 |A4 F4 G8 |c4 d2 e2 f4 e4 |d16 |e4 d2 e2 c4 B4 |A4 d2 c2 B4 G4 |c4 c2 d2 e4 d4 |c16 ||

